X: 36549
T: Seven Degree, The
R: jig
M: 6/8
K: Gmajor
D|GDG BGB|dge dBG|A2d d^cd|ABG FED|
GDG BGB|dge dBG|A2d d=cA|AGF G2:|
B|d2g gfg|dec BAG|A2d d^cd|ABG FED|
d2g gfg|dec BAG|A2d d=cA|AGF G2:|

